packages/core/assets/Icons/arrow_alt_up.svg

<svg viewBox="0 0 20 20" fill="none" xmlns="http://www.w3.org/2000/svg">
<path d="M10 18.3333C9.76393 18.3333 9.56601 18.2535 9.40629 18.0937C9.24657 17.934 9.16671 17.7361 9.16671 17.5V4.85415L5.91671 8.08331C5.76393 8.23609 5.57296 8.31595 5.34379 8.3229C5.11462 8.32984 4.91671 8.24998 4.75004 8.08331C4.59726 7.93054 4.52087 7.73609 4.52087 7.49998C4.52087 7.26387 4.59726 7.06942 4.75004 6.91665L9.41671 2.24998C9.50004 2.16665 9.59032 2.10762 9.68754 2.0729C9.78476 2.03817 9.88893 2.02081 10 2.02081C10.1112 2.02081 10.2153 2.03817 10.3125 2.0729C10.4098 2.10762 10.5 2.16665 10.5834 2.24998L15.25 6.91665C15.4028 7.06942 15.4792 7.2604 15.4792 7.48956C15.4792 7.71873 15.4028 7.91665 15.25 8.08331C15.0834 8.24998 14.8855 8.33331 14.6563 8.33331C14.4271 8.33331 14.2292 8.24998 14.0625 8.08331L10.8334 4.85415V17.5C10.8334 17.7361 10.7535 17.934 10.5938 18.0937C10.4341 18.2535 10.2362 18.3333 10 18.3333Z" fill="currentColor"/>
</svg>

<svg xmlns="http://www.w3.org/2000/svg" width="20" height="20" fill="none" viewBox="0 0 20 20">
  <path fill="#201F1F" d="M10 18.333a.806.806 0 0 1-.594-.24.806.806 0 0 1-.24-.593V4.854l-3.25 3.23a.814.814 0 0 1-.572.239.776.776 0 0 1-.594-.24.79.79 0 0 1-.23-.583.79.79 0 0 1 .23-.583L9.417 2.25a.731.731 0 0 1 .27-.177A.922.922 0 0 1 10 2.02c.111 0 .215.017.313.052a.731.731 0 0 1 .27.177l4.667 4.667c.153.152.23.343.23.573a.846.846 0 0 1-.23.593.81.81 0 0 1-.594.25.811.811 0 0 1-.594-.25l-3.229-3.229V17.5c0 .236-.08.434-.24.594a.806.806 0 0 1-.593.24Z"/>
</svg>
